svg/css.svg

<svg viewBox="0 0 20 20" xmlns="http://www.w3.org/2000/svg">
<rect width="100%" height="100%" fill="#264DE4"/>
<path d="M17.4919 1.75L16.1425 16.9863L10.0013 18.75L3.86 16.9863L2.5 1.75H17.4812H17.4919ZM5.79375 10.5581H12.2963L12.0731 12.9912L9.98 13.5544L7.88688 12.9912L7.74875 11.4931H5.86812L6.13375 14.4363L9.98 15.4988L13.8262 14.4363L13.8581 14.1175L14.3044 9.17688L14.3469 8.6775L14.6869 4.88437H5.305L5.46437 6.765H12.6362L12.4663 8.68813H5.63438L5.80437 10.5687L5.79375 10.5581Z" fill="white"/>
</svg>

<svg xmlns="http://www.w3.org/2000/svg" viewBox="0 0 20 20">
  <rect width="100%" height="100%" fill="#264DE4"/>
  <path fill="#fff" d="m17.492 1.75-1.35 15.236-6.14 1.764-6.142-1.764L2.5 1.75h14.991ZM5.794 10.558h6.502l-.223 2.433-2.093.563-2.093-.563-.138-1.498h-1.88l.265 2.943L9.98 15.5l3.846-1.063.032-.319.446-4.94.043-.5.34-3.793H5.305l.16 1.881h7.171l-.17 1.923H5.634l.17 1.88-.01-.01Z"/>
</svg>
